packages/icons/raw/imported/SportFeatured.svg

<svg width="32" height="32" viewBox="0 0 32 32" fill="none" xmlns="http://www.w3.org/2000/svg">
<path d="M14.7426 8.32653C15.2078 7.22449 16.7922 7.22449 17.2574 8.32654L18.7423 11.8443C18.9384 12.3089 19.3818 12.6264 19.8908 12.6666L23.7451 12.971C24.9525 13.0664 25.4421 14.5512 24.5222 15.3277L21.5857 17.8063C21.1978 18.1336 21.0285 18.6472 21.147 19.1367L22.0441 22.8426C22.3252 24.0036 21.0434 24.9213 20.0096 24.2991L16.7098 22.3132C16.274 22.0509 15.726 22.0509 15.2902 22.3132L11.9904 24.2991C10.9566 24.9213 9.67483 24.0036 9.95589 22.8426L10.853 19.1367C10.9715 18.6472 10.8022 18.1336 10.4143 17.8063L7.4778 15.3277C6.55785 14.5512 7.04746 13.0664 8.25491 12.971L12.1092 12.6666C12.6182 12.6264 13.0616 12.3089 13.2577 11.8443L14.7426 8.32653Z" stroke="black"/>
</svg>

<svg width="32" height="32" fill="none" xmlns="http://www.w3.org/2000/svg"><path d="M14.743 8.327c.465-1.103 2.05-1.103 2.514 0l1.485 3.517c.196.465.64.782 1.149.823l3.854.304c1.207.095 1.697 1.58.777 2.357l-2.936 2.478a1.33 1.33 0 0 0-.439 1.33l.897 3.707c.281 1.16-1 2.078-2.034 1.456l-3.3-1.986a1.379 1.379 0 0 0-1.42 0l-3.3 1.986c-1.033.622-2.315-.295-2.034-1.456l.897-3.706a1.33 1.33 0 0 0-.439-1.33l-2.936-2.48c-.92-.776-.43-2.26.777-2.356l3.854-.304a1.36 1.36 0 0 0 1.149-.823l1.485-3.517Z" stroke="#000"/></svg>
